material/.icons/material/keyboard-close.svg

<svg xmlns="http://www.w3.org/2000/svg" viewBox="0 0 24 24"><path d="M12 23l4-4H8M19 8h-2V6h2m0 5h-2V9h2m-3-1h-2V6h2m0 5h-2V9h2m0 6H8v-2h8M7 8H5V6h2m0 5H5V9h2m1 0h2v2H8m0-5h2v2H8m3 1h2v2h-2m0-5h2v2h-2m9-5H4c-1.11 0-2 .89-2 2v10a2 2 0 002 2h16a2 2 0 002-2V5a2 2 0 00-2-2z"/></svg>

<?xml version="1.0" encoding="UTF-8"?><!DOCTYPE svg PUBLIC "-//W3C//DTD SVG 1.1//EN" "http://www.w3.org/Graphics/SVG/1.1/DTD/svg11.dtd"><svg xmlns="http://www.w3.org/2000/svg" xmlns:xlink="http://www.w3.org/1999/xlink" version="1.1" id="mdi-keyboard-close" width="24" height="24" viewBox="0 0 24 24"><path d="M12,23L16,19H8M19,8H17V6H19M19,11H17V9H19M16,8H14V6H16M16,11H14V9H16M16,15H8V13H16M7,8H5V6H7M7,11H5V9H7M8,9H10V11H8M8,6H10V8H8M11,9H13V11H11M11,6H13V8H11M20,3H4C2.89,3 2,3.89 2,5V15A2,2 0 0,0 4,17H20A2,2 0 0,0 22,15V5C22,3.89 21.1,3 20,3Z" /></svg>
